X: 110689
T: Killanan's Fancy
S: "Play 50 Reels" (Armagh Pipers' Club)
Z: B.Black
L: 1/8
M: 4/4
R: reel
K: G
BA|GEDE G3 B|AD D2 BDAD|GEDE GABd|egdB c2 BA|
GE E2 G3 B|ADBD cDBD|GEDE GABd|egdB G2||
Bd|g3 b a3 b|gabg agef|g3 b a3 b|gabg a2 ef|
gfge a3 b|gabg afgf|e3 e edBd|gedB A2||
